X:7
T: Már ezután Szent Mihály-nap
O: Nagyhortobágy (Hajdu), Rimóczi Mihály (73), 1939.08
Q: "Rubato" 1/4=80
M:2/4
L:1/4
K:F
A/A/A/G/ | A/A/A/G/ | c/=B/ c | d>z | 
A/A/A/G/ | A/A/A/G/ | c/=B/ c | d>z | 
{/d}e/d/c/B/ | A/G/ (A {/c}) | 
d/D/E/G/ | F/E/F | 
A/>c/B/A/ | G/A/G | D>z | 

